!!!OTL: Sheyuan xinli buzhi youji kuaihuo
!!!ARE: Asia, China,ÿHubei Jianli
!! I, 367
!!!SCT: C2132
!!!YEM: Copyright 1995, estate of Helmut Schaffrath.
**kern
*ICvox
*Ivox
!! Irregular meter.
*MX
*k[f#]
*G:
{16dd
16gg
8dd
16dd
16gg
8dd
2a
16a
16ee
8dd
2gg
16ee
16gg
16dd
16gg
2ee}
=1
{4.a
8a
8a
8a
2g
=2
8g
8a
8a
4.dd
8dd
8a
4.e
8d
2d}
{8r
16dd
16ee
8dd
8ee
=3
16ee
16gg
4ee
16gg
16ee
=4
4.dd
16ee
16gg
=5
8a
8a
[4a
=6
4a]
8r}
{16a
16a
=7
16a
16dd
8a
=8
16a
16dd
8a
=9
16g
16a
8g
=10
8a
8a
=11
8a
8a
=12
8a
8a}
{16dd
16a
8g
8a
=13
16g
16g
16a
16dd
8a
=14
8.a
16dd
16g
16g
=15
16a
16b
8a
2dd
8a
4.e
8d
4.d}
{8r
8dd
=16
16ee
16ff#
8ee
=17
8dd
8ee
=18
16ee
16ff#
8ee
=19
8dd
8ee
=20
8a
8dd
=21
16ee
16gg
8dd
=22
16ee
16gg
8dd
=23
8ee
16dd
16ee
=24
8dd
8a
=25
8dd}
{8g
16a
16a
=26
8g
16g
16g
=27
8a
8a
=28
8dd}
{8g
16a
16g
=29
16a
16dd
8a
8a
=30
16dd
16a
8a
16dd
16dd
=31
16a
16dd
8g
8a
4.dd
=32
4.a
8a
16a
16b
8a
=33
2g}
=34
{16a
16b
16a
16g
8g
8a
8a
4.dd
8dd
8a
4.e
8d
2d}
==
!!!AGN: Shange, Tiange, Zaiyangge Huage
!!!ONB: ESAC (Essen Associative Code) Database: SENGANSU
!!!AMT: irregular
!!!AIN: vox
!!!EED: Helmut Schaffrath
!!!EEV: 1.0
*-
!!!ONB: Tied note syntax fixed by Craig Sapp, 2004/05/03/
